X: 12275
T: Fairy Dance, The
R: reel
M: 4/4
K: Dmajor
g|:fAdg fAdg|fAde cdeg|fAdf gfed|1 cABc d4:|2 cAbc defg||
a2 ag b>bba|geee aaag|fadf gfed|1 cABc defg:|2 cAbc d4||

